X:1
T:Title
%%score { ( 1 3 ) | 2 }
L:1/8
Q:1/4=100
M:6/8
K:C
V:1 treble nm="Grand Piano"
V:3 treble 
V:2 bass 
V:1
 [EG][Ec][EB] [Fd][Ec][FA] | [EG][_E^F][EA] [=EG]2 [Ec] | B2 B GAB | [Ec]6 | %4
w: Chas.~H.~Gabriel * * * * *||||
 [EG][Ec][EB] [Fd][Ec][FA] | [EG][EA][E_B] [D=B]3 | [^Fd][FA][Fe] [Fd][FA][Fe] | [Fd]6 | c3 .c3 | %9
w: |||||
 [Fc]BB B3 | d3 .d3 | [Fd][Ec][Ec] [Ec]3 | [Ge][Ge][Ge] [Ge][Gd][Gc] | dcA dcA | G3 d2 [Ec] | %15
w: ||||||
 [Ec]6 |] %16
w: |
V:2
 [C,C][C,G,][C,G,] [C,G,][C,G,][C,C] | [C,C][C,C][C,C] [C,C]2 [C,C] | %2
 [G,DF]2 [G,DF] [G,B,F][G,A,F][G,F] | [C,G,]6 | [C,C][C,G,][C,G,] [C,G,][C,G,][C,C] | %5
 [C,C][C,C][C,C] [D,G,]3 | [D,C][D,C][D,C] [D,C][D,C][D,C] | [G,B,]6 | %8
 [C,G,][C,G,][C,G,] [C,G,][C,G,][C,G,] | [D,G,][K:treble][G,DF][G,DF] [G,DF]3 | %10
 [G,B,F]B,[G,B,] [G,B,F][G,B,][G,F] | [C,G,][C,G,][C,G,] [C,G,]3 | %12
 [C,C][C,C][C,C] [C,C][D,B,][E,C] | [F,A,F][F,A,F][F,CF] [F,A,F][F,A,F][F,CF] | %14
 [G,CE]3 [G,B,F]2[K:bass] [C,G,] | [C,G,]6 |] %16
V:3
 x6 | x6 | x6 | x6 | x6 | x6 | x6 | x6 | EEE EE[EA] | x6 | z FF z FB | x6 | x6 | x6 | x6 | x6 |] %16

